remix/Others/t-shirt-fill.svg

<svg viewBox="0 0 24 24" fill="currentColor" xmlns="http://www.w3.org/2000/svg"><path d="M14.5135 5.00008L17.1201 2.39348C17.5106 2.00295 18.1438 2.00295 18.5343 2.39348L22.777 6.63612C23.1675 7.02664 23.1675 7.65981 22.777 8.05033L18.9988 11.8285V21.0001C18.9988 21.5524 18.5511 22.0001 17.9988 22.0001H5.9988C5.44652 22.0001 4.9988 21.5524 4.9988 21.0001V11.8285L1.22063 8.05033C0.830103 7.65981 0.830103 7.02664 1.22063 6.63612L5.46327 2.39348C5.85379 2.00295 6.48696 2.00295 6.87748 2.39348L9.48408 5.00008H14.5135Z"/></svg>

<svg viewBox="0 0 24 24" xmlns="http://www.w3.org/2000/svg"><path fill="none" d="M0 0h24v24H0Z"/><path d="M14.515 5l2.6-2.607v0c.39-.4 1.02-.4 1.41-.01 0 0 0 0 0 0l4.24 4.243v-.001c.39.39.39 1.02 0 1.41l-3.78 3.77v9.172 0c0 .55-.45 1-1 1h-12v0c-.56 0-1-.45-1-1v-9.172L1.2 8.025v0c-.4-.4-.4-1.03-.001-1.42l4.24-4.243v0c.39-.4 1.02-.4 1.41-.01 0 0 0 0 0 0l2.6 2.6h5.03Z"/></svg>
